X:21
T:Snug in the Blanket
R:single jig
D:Snug in the Blanket,P.O'Brien,J.Gans,D.Sproule
O:Leo Rowsome, Irish Pipes, Dublin
B:O'Neill's Music of Ireland
Z:Paul Stewart Cranford (P.S.C.), <http://www.cranfordpub.com>
L:1/8
Q:333
M:12/8
K:G
A2 B cBc EDE c2 A|B2 G AFD GFG BAG|A2 B cBc EDE c2 A|BAG AFD GFG BAG:|
|:FGA AFd AFd AFD|FGA AFD GFG BAG|FGA AFd AFd ABc|BAB cAF GFG BAG:|
|:FGA AFA D/D/DD AFD|FGA AFD GFG BAG|FGA AFA D/D/DD ABc|BAB cAF GFG BAG:|
